app/images/icons/logo-white.svg

<svg width="26" height="26" viewBox="0 0 26 26" fill="none" xmlns="http://www.w3.org/2000/svg">
<path d="M24.0282 16.2513C23.2875 18.5858 21.6488 21.4738 18.4601 23.1836C16.5758 24.194 14.5387 24.6283 12.5481 24.5485L12.6022 1.48841C13.1984 1.48867 13.9131 1.51848 14.6442 1.60154C14.9947 1.64137 15.338 1.69231 15.6664 1.75501C16.3908 1.92715 17.0981 2.16871 17.7774 2.47653C20.0085 3.48751 21.9361 5.21181 23.1835 7.53828C24.2129 9.45794 24.6441 11.5354 24.5435 13.5607C24.5011 14.2442 24.3459 15.1969 24.0282 16.2513ZM10.6016 1.75159L10.5487 24.2928C7.35578 23.5984 4.47862 21.5631 2.81481 18.4602C-0.201192 12.8355 1.91356 5.83085 7.53823 2.81486C8.1905 2.4651 9.27882 2.03231 10.6016 1.75159Z" stroke="url(#paint0_linear_0_488)" stroke-width="2"/>
<defs>
<linearGradient id="paint0_linear_0_488" x1="0.914146" y1="11.338" x2="27.354" y2="12.9979" gradientUnits="userSpaceOnUse">
<stop offset="0.288448" stop-color="white"/>
<stop offset="0.780176" stop-color="white" stop-opacity="0"/>
</linearGradient>
</defs>
</svg>

<svg width="26" height="26" fill="none" xmlns="http://www.w3.org/2000/svg"><path d="M24.028 16.251c-.74 2.335-2.38 5.223-5.568 6.933a11.498 11.498 0 01-5.912 1.364l.054-23.06c.596 0 1.311.03 2.042.114.35.04.694.09 1.022.153a11.63 11.63 0 012.111.722 11.5 11.5 0 015.406 5.061 11.497 11.497 0 011.36 6.023c-.042.683-.197 1.636-.515 2.69zm-13.426-14.5l-.053 22.542a11.529 11.529 0 01-7.734-5.833C-.201 12.835 1.914 5.83 7.538 2.815c.652-.35 1.74-.783 3.064-1.063z" stroke="url(#paint0_linear_0_488)" stroke-width="2"/><defs><linearGradient id="paint0_linear_0_488" x1=".914" y1="11.338" x2="27.354" y2="12.998" gradientUnits="userSpaceOnUse"><stop offset=".288" stop-color="#fff"/><stop offset=".78" stop-color="#fff" stop-opacity="0"/></linearGradient></defs></svg>
